X:400
T:Nightingale, The
R:jig
C:Sean Ryan (-1985)
Z:hn-jig-400
M:6/8
L:1/8
K:Ador
|: EAA A2B | cAd cAG | EDE ~G3 | G,B,D GFG |
EAA A2B | cAB cde | ~g3 e/f/ge |1 dBG A2G :|2 dBG A2a ||
aea aef | gdg gdg | aea aef | gfe deg |
aea aef | gdg gdg | gfg e/f/ge | dBG A2a |
aea aef | gdg gdg | aea aef | gfe def |
g2e fed | edB GBd | ~g3 ege | dBG A2G ||

